X:1
T:My soul truly waiteth still upon God
T:My soul truly waiteth still upon God (William Bennett)
C:William Bennett
Z:Text: Ps. 62, verses 1-2, 7-8 (BCP)
%%score [ 1 2 3 ( 4 5 ) ]
L:1/8
M:3/4
K:C
V:1 treble nm="Soprano" snm="S."
V:2 treble nm="Alto" snm="A."
V:3 treble-8 transpose=-12 nm="Tenor" snm="T."
V:4 bass nm="Bass" snm="B."
V:5 bass 
V:1
"^Verse Treble & BassAffett[uos]o" E2 | (A3 B/c/) B>^G | (A>B A>B) (cA) | d3 c (BA) | (A2 ^G2) G2 | %5
w: My|soul _ _ tru- ly|wai- * * * teth _|still up- on _|God, _ my|
 (c3 d/e/) d>B | (c>d c>d) (ec) | f3 e (dc) | (c2 B2) e^G | A2 Bc BA | (^G>F) E2 z B | e4 fe | %12
w: soul _ _ tru- ly|wai- * * * teth _|still up- on _|God, _ for of|him co- meth my sal-|va- * tion, of|him co- meth|
 dc (c2 TB>c) | c4 |: e2 | cA A2 ^cc | d4 d2 | dB B2 ^dd | e6- | e4 (eB) | c3 e dc | c2 B2 (c^G) | %22
w: my sal- va- * *|tion.|He|ve- ri- ly is my|strength, he|ve- ri- ly is my|strength,|_ my _|strength and my sal-|va- tion, my _|
 A3 c BA | A2 ^G2 e2 | A2 B2 c2 | d4 d2 | G2 A2 B2 | (c3 B AG | d3 c BA | e6- | e6) | %31
w: strength and my sal-|va- tion: he|is my de-|fence, he|is my de-|fence, _ _ _|_ _ _ _|||
 (fe) (dc) (BA) | (A2 ^G2) A2 | (A/B/A/B/ c2) (B>A) | A4 ::"^Chos. Vivace" E2 | A2 c2 A2 | %37
w: so _ that _ I _|shall _ not|great- * * * * ly _|fall.|In|God is my|
 ^G3 A B2 | (c>d c>B A>^G | A2) E2 G2 | c2 (cd) e2 | A2 ^G2 c2 | A2 (dc) (BA) | B4 z G | %44
w: health and my|glo- * * * * *|* ry, my|health and _ my|glo- ry, the|rock of _ my _|might, the|
 c2 (cB) (A^G) | A4 AB | c4 z e | d2 c2 B2 | c6 | z6 | z6 | z6 | e2 c2 e2 | Td3 c B2 | e2 A2 B2 | %55
w: rock of _ my _|might, and in|God, in|God is my|trust.||||O put your|trust in him|al- way, ye|
 c2 c2 cc | B3 c d2 | c2 B2 BA | ^G2 A2 B2 | c2 A3 A | (A^G) G2 z2 | A2 AA AA | B2 B2 z2 | %63
w: peo- ple, put your|trust in him|al- way, put your|trust in him|al- way, ye|peo- * ple:|pour out your hearts be-|fore him,|
 B2 BB BB | c2 c2 e2 | d2 c2 B2 | c4 z2 | c2 cc cc | (cB) B2 z2 | A2 AA AA | (A^G) G2 c2 | %71
w: pour out your hearts be-|fore him, for|God is our|hope.|Pour out your hearts be-|fore _ him,|pour out your hearts be-|fore _ him, for|
 B2 A2 ^G2 | !fermata!A4 :| %73
w: God is our|hope.|
V:2
 z2 | z6 | z6 | z6 | z6 | z6 | z6 | z6 | z6 | z6 | z6 | z6 | z6 | z4 |: z2 | z6 | z6 | z6 | z6 | %19
w: |||||||||||||||||||
 z6 | z6 | z6 | z6 | z6 | z6 | z6 | z6 | z6 | z6 | z6 | z6 | z6 | z6 | z6 | z4 :: E2 | E2 E2 E2 | %37
w: ||||||||||||||||In|God is my|
 E3 E E2 | C2 A,2 (CD) | E2 E2 E2 | (E>F E>D C>D | E2) E2 ^G2 | A2 (AG) ^F2 | G4 z G | G2 (GF) E2 | %45
w: health and my|glo- ry, my _|health and my|glo- * * * * *|* ry, the|rock of _ my|might, the|rock of _ my|
 E4 EF | G4 z G | F2 E2 D2 | E6 | z6 | z6 | z6 | z6 | z6 | z6 | G2 E2 G2 | F3 E F2 | E2 E2 EE | %58
w: might, and in|God, in|God is my|trust.|||||||O put your|trust in him|al- way, put your|
 E3 E E2 | E2 E2 (^D>E) | E2 E2 z2 | E2 EE EE | F2 F2 z2 | G2 GG GG | G2 G2 ^G2 | A2 G2 F2 | %66
w: trust in him|al- way, ye _|peo- ple:|pour out your hearts be-|fore him,|pour out your hearts be-|fore him, for|God is our|
 E4 z2 | G2 GG GG | G2 G2 z2 | E2 EE EE | E2 E2 (AG) | F2 F2 E2 | !fermata!E4 :| %73
w: hope.|Pour out your hearts be-|fore him,|pour out your hearts be-|fore him, for _|God is our|hope.|
V:3
 z2 | z6 | z6 | z6 | z6 | z6 | z6 | z6 | z6 | z6 | z6 | z6 | z6 | z4 |: z2 | z6 | z6 | z6 | z6 | %19
w: |||||||||||||||||||
 z6 | z6 | z6 | z6 | z6 | z6 | z6 | z6 | z6 | z6 | z6 | z6 | z6 | z6 | z6 | z4 :: B2 | c2 e2 c2 | %37
w: ||||||||||||||||In|God is my|
 B3 c d2 | (e>f e>d c>B | c2 A2) E2 | A2 (AB) c2 | c2 B2 e2 | c2 (fe) (dc) | d4 z B | %44
w: health and my|glo- * * * * *|* ry, my|health and _ my|glo- ry, the|rock of _ my _|might, the|
 e2 (ed) (cB) | c4 cd | e4 z c | A2 G2 (F>E) | E6 | e2 A2 B2 | c3 B A2 | B2 E2 ^G2 | A2 A2 z2 | %53
w: rock of _ my _|might, and in|God, in|God is my _|trust.|O put your|trust in him|al- way, ye|peo- ple,|
 z6 | z6 | e2 c2 e2 | d3 c B2 | c2 ^G2 GA | B3 A ^G2 | c2 c3 c | (cB) B2 z2 | c2 cc cc | d2 d2 z2 | %63
w: ||O put your|trust in him|al- way, put your|trust in him|al- way, ye|peo- * ple:|pour out your hearts be-|fore him,|
 d2 dd dd | e2 e2 c2 | f2 e2 d2 | c4 z2 | e2 ee ee | (ed) d2 z2 | c2 cc cc | (cB) B2 e2 | %71
w: pour out your hearts be-|fore him, for|God is our|hope.|Pour out your hearts be-|fore _ him,|pour out your hearts be-|fore _ him, for|
 d2 c2 (B>A) | !fermata!A4 :| %73
w: God is our _|hope.|
V:4
"^Inst." A,,2 | A,,4 B,,2 | C,2 D,2 E,2 | F,3 E, D,2 | E,4 E,2 | (A,3 B,/C/) B,>G, | %6
w: ||||* My|soul _ _ tru- ly|
 (A,>B, A,>B,) (CA,) | D,3 E, F,2 | G,4 E,D, | C,2 G,A, G,F, | E,2 E,2 z E, | C,4 D,E, | %12
w: wai- * * * teth _|still up- on|God, for of|him co- meth my sal-|va- tion, of|him co- meth|
 F,C, [G,,G,]4 | C,4 |:"^[Inst.]" C,2 | C,4 A,2 | F,D, D,2 ^F,F, | G,4 G,2 | G,E, E,2 A,B, | %19
w: my sal- va-|tion.||* He|ve- ri- ly is my|strength, he|ve- ri- ly is my|
 C4 ^G,2 | A,3 C B,A, | A,2 ^G,2 E,2 | F,3 A, G,F, | E,2 E,2"^[Inst.]" C2 | C2 B,2 A,2 | %25
w: strength, my|strength and my sal-|va- tion, my|strength and my sal-|va- tion: *|* * he|
 D,2 E,2 F,2 | G,2 F,2 E,2 | (A,3 G, F,E, | D,4) E,2 | C,2 E,2 G,2 | C6 | C,2 D,2 E,2 | %32
w: is my de-|fence, my de-|fence, _ _ _|_ he|is my de-|fence,|so that I|
 (F,2 E,2) D,2 | E,4 [E,,E,]2 | A,,4 :: E,2 | C,2 A,,2 C,2 | E,3 A, ^G,2 | A,2 A,,2 E,2 | %39
w: shall _ not|great- ly|fall.|In|God is my|health and my|glo- ry, my|
 A,2 A,2 B,2 | (C>D C>B, A,>G, | A,2) E,2 E,2 | F,2 (D,E,) (F,D,) | G,4 z G, | E,2 (E,F,) (G,E,) | %45
w: health and my|glo- * * * * *|* ry, the|rock of _ my _|might, the|rock of _ my _|
 A,4 E,D, | C,4 z E, | F,2 G,2 G,,2 | C,6 |"^Inst." C,4 B,,2 | A,,3 B,, C,2 | D,2 E,2 E,,2 | %52
w: might, and in|God, in|God is my|trust.||||
 A,2 E,2 C2 | B,3 A, G,2 | C2 F,2 G,2 | C,2 C,2 C,C, | D,3 D, D,2 | E,2 E,2 E,E, | E,3 F, ^G,2 | %59
w: O put your|trust in him|al- way, ye|peo- ple, put your|trust in him|al- way, put your|trust in him|
 A,2 F,3 E, | E,2 E,2 z2 | A,2 A,A, A,A, | D,2 D,2 z2 | G,2 G,G, G,G, | C,2 C,2 E,2 | %65
w: al- way, ye|peo- ple:|pour out your hearts be-|fore him,|pour out your hearts be-|fore him, for|
 F,2 G,2 G,,2 | %66
w: God is our|
"^Notes:The soprano, alto and tenor parts are printed in A New Set of Psalm Tunes and Anthems in the treble clef, withthe alto and tenor parts an octave above sounding pitch.The soprano part is identifiable as the topmost stave because of the use of a distinctive 'G' clef, commentedon by Bennett in a preface, ‘The common Theory of Music made easy, in a DIALOGUE between MASTERand SCHOLAR’, which forms pages [I] - IV of A New Set of Psalm Tunes and Anthems:‘[A]s the G Cliff is by far the easiest for young Beginners, I have set all the three upper Parts in that Cliff, onlyfor Distinction I have set Gs to the Treble, and the modern G Cliff Signature to the two inner Parts, as theyare sung an Octave below.’The instrumental bass passages shown in small notes in this edition are printed in the source using standard-sizednotes, on the bass vocal stave: the marking ‘Ins.’ is used in the source to indicate these at the start of the pieceand in bar 47. In bars 13-14 and 22-23, where the instrumental bass plays and the bass voices remain silent,this is indicated in the source with crotchet rests above or below the instrumental bass notes.The sections shown here as repeated (from bar 13 to bar 33, and from bar 33 to the end) are demarcated in thesource by $ markings at the beginning and double bar lines at the end.The pairs of notes in the soprano part on beats 1 and 2 of bar 4 (A and G#) and bar 8 (C and B), shown here aspairs of crotchets, are both printed in the source with the first note as a small quaver grace note and the secondnote as a full-sized minim.The cautionary natural in the bass part on beat 3 of bar 40 is editorial: this note appears without any accidentalin the source." C,4 z2 | %67
w: hope.|
 C2 CC CC | G,2 [G,,G,]2 z2 | A,2 A,A, A,A, | E,2 [E,,E,]2 C,2 | F,2 D,2 E,2 | !fermata!A,,4 :| %73
w: Pour out your hearts be-|fore him,|pour out your hearts be-|fore him, for|God is our|hope.|
V:5
 x2 | x6 | x6 | x6 | x6 | x6 | x6 | x6 | x6 | x6 | x6 | x6 | x6 | x4 |: x2 | x6 | x6 | x6 | x6 | %19
 x6 | x6 | x6 | x6 | x6 | x6 | x6 | x6 | x6 | x6 | x6 | x6 | x6 | x6 | x6 | x4 :: x2 | x6 | x6 | %38
 x6 | x6 | x6 | x6 | x6 | x6 | x6 | x6 | x6 | x6 | x6 | x6 | x6 | x6 | A,,4 z2 | x6 | x6 | x6 | %56
 x6 | x6 | x6 | x6 | x6 | x6 | x6 | x6 | x6 | x6 | x6 | C,6 | x6 | A,,6 | x6 | x6 | x4 :| %73

